img/svg-icons/play.svg

<svg xmlns="http://www.w3.org/2000/svg" id="play" viewBox="0 0 58 43.4"><path d="M48.4 0H9.7A9.65 9.65 0 0 0 0 9.7v24a9.71 9.71 0 0 0 9.7 9.7h38.6a9.69 9.69 0 0 0 9.7-9.6V9.7A9.62 9.62 0 0 0 48.4 0zm7.9 33.8a7.85 7.85 0 0 1-7.9 7.9H9.7a7.85 7.85 0 0 1-7.9-7.9V9.7a7.85 7.85 0 0 1 7.9-7.9h38.7a7.85 7.85 0 0 1 7.9 7.9v24.1z"/><path d="M20.4 34.5l22.2-12.8L20.4 8.9v25.6zm1.8-22.6l16.9 9.7-16.9 9.8V11.9z"/></svg>

<svg id="play" xmlns="http://www.w3.org/2000/svg" width="58" height="43.4" viewBox="0 0 58 43.4"><title>play</title><path d="M48.4,0H9.7A9.65,9.65,0,0,0,0,9.7v24a9.71,9.71,0,0,0,9.7,9.7H48.3A9.69,9.69,0,0,0,58,33.8V9.7A9.62,9.62,0,0,0,48.4,0Zm7.9,33.8a7.85,7.85,0,0,1-7.9,7.9H9.7a7.85,7.85,0,0,1-7.9-7.9V9.7A7.85,7.85,0,0,1,9.7,1.8H48.4a7.85,7.85,0,0,1,7.9,7.9V33.8Z" transform="translate(0 0)"  /><path d="M20.4,34.5L42.6,21.7,20.4,8.9V34.5Zm1.8-22.6,16.9,9.7L22.2,31.4V11.9Z" transform="translate(0 0)"  /></svg>
